images/3235209.svg

<?xml version="1.0" encoding="UTF-8"?>
<svg xmlns="http://www.w3.org/2000/svg" xmlns:xlink="http://www.w3.org/1999/xlink" width="300pt" height="300pt" viewBox="0 0 300 300" version="1.1">
<defs>
<g>
<symbol overflow="visible" id="glyph0-0">
<path style="stroke:none;" d="M 0.453125 1.59375 L 0.453125 -6.34375 L 4.953125 -6.34375 L 4.953125 1.59375 Z M 0.953125 1.09375 L 4.453125 1.09375 L 4.453125 -5.84375 L 0.953125 -5.84375 Z M 0.953125 1.09375 "/>
</symbol>
<symbol overflow="visible" id="glyph0-1">
<path style="stroke:none;" d="M 3.546875 -5.953125 C 2.898438 -5.953125 2.382812 -5.710938 2 -5.234375 C 1.625 -4.753906 1.4375 -4.101562 1.4375 -3.28125 C 1.4375 -2.445312 1.625 -1.789062 2 -1.3125 C 2.382812 -0.832031 2.898438 -0.59375 3.546875 -0.59375 C 4.191406 -0.59375 4.703125 -0.832031 5.078125 -1.3125 C 5.453125 -1.789062 5.640625 -2.445312 5.640625 -3.28125 C 5.640625 -4.101562 5.453125 -4.753906 5.078125 -5.234375 C 4.703125 -5.710938 4.191406 -5.953125 3.546875 -5.953125 Z M 3.546875 -6.6875 C 4.460938 -6.6875 5.195312 -6.375 5.75 -5.75 C 6.300781 -5.132812 6.578125 -4.3125 6.578125 -3.28125 C 6.578125 -2.238281 6.300781 -1.410156 5.75 -0.796875 C 5.195312 -0.179688 4.460938 0.125 3.546875 0.125 C 2.617188 0.125 1.878906 -0.179688 1.328125 -0.796875 C 0.773438 -1.410156 0.5 -2.238281 0.5 -3.28125 C 0.5 -4.3125 0.773438 -5.132812 1.328125 -5.75 C 1.878906 -6.375 2.617188 -6.6875 3.546875 -6.6875 Z M 3.546875 -6.6875 "/>
</symbol>
<symbol overflow="visible" id="glyph0-2">
<path style="stroke:none;" d="M 0.890625 -6.5625 L 2.078125 -6.5625 L 4.984375 -1.078125 L 4.984375 -6.5625 L 5.84375 -6.5625 L 5.84375 0 L 4.65625 0 L 1.75 -5.484375 L 1.75 0 L 0.890625 0 Z M 0.890625 -6.5625 "/>
</symbol>
<symbol overflow="visible" id="glyph0-3">
<path style="stroke:none;" d="M 0.890625 -6.5625 L 1.765625 -6.5625 L 1.765625 -3.875 L 5 -3.875 L 5 -6.5625 L 5.890625 -6.5625 L 5.890625 0 L 5 0 L 5 -3.125 L 1.765625 -3.125 L 1.765625 0 L 0.890625 0 Z M 0.890625 -6.5625 "/>
</symbol>
</g>
</defs>
<g id="surface36237">
<rect x="0" y="0" width="300" height="300" style="fill:rgb(100%,100%,100%);fill-opacity:1;stroke:none;"/>
<path style="fill:none;stroke-width:1.2;stroke-linecap:butt;stroke-linejoin:miter;stroke:rgb(0%,0%,0%);stroke-opacity:1;stroke-miterlimit:10;" d="M 35.25 144.773438 L 41.300781 151.296875 "/>
<path style="fill:none;stroke-width:1.2;stroke-linecap:butt;stroke-linejoin:miter;stroke:rgb(100%,0%,0%);stroke-opacity:1;stroke-miterlimit:10;" d="M 41.300781 151.296875 L 47.351562 157.820312 "/>
<path style="fill:none;stroke-width:1.2;stroke-linecap:butt;stroke-linejoin:miter;stroke:rgb(100%,0%,0%);stroke-opacity:1;stroke-miterlimit:10;" d="M 47.351562 157.820312 L 56.023438 155.839844 "/>
<path style="fill:none;stroke-width:1.2;stroke-linecap:butt;stroke-linejoin:miter;stroke:rgb(0%,0%,0%);stroke-opacity:1;stroke-miterlimit:10;" d="M 56.023438 155.839844 L 64.699219 153.863281 "/>
<path style=" stroke:none;fill-rule:nonzero;fill:rgb(100%,100%,100%);fill-opacity:1;" d="M 43.351562 152.320312 L 51.351562 152.320312 L 51.351562 163.320312 L 43.351562 163.320312 Z M 43.351562 152.320312 "/>
<g style="fill:rgb(100%,0%,0%);fill-opacity:1;">
  <use xlink:href="#glyph0-1" x="43.351562" y="160.983398"/>
</g>
<path style="fill:none;stroke-width:1.2;stroke-linecap:butt;stroke-linejoin:miter;stroke:rgb(0%,0%,0%);stroke-opacity:1;stroke-miterlimit:10;" d="M 64.699219 153.863281 L 69.949219 136.859375 "/>
<path style="fill:none;stroke-width:1.2;stroke-linecap:butt;stroke-linejoin:miter;stroke:rgb(0%,0%,0%);stroke-opacity:1;stroke-miterlimit:10;" d="M 69.226562 153.398438 L 73.425781 139.796875 "/>
<path style="fill:none;stroke-width:1.2;stroke-linecap:butt;stroke-linejoin:miter;stroke:rgb(0%,0%,0%);stroke-opacity:1;stroke-miterlimit:10;" d="M 76.800781 166.910156 L 64.699219 153.863281 "/>
<path style="fill:none;stroke-width:1.2;stroke-linecap:butt;stroke-linejoin:miter;stroke:rgb(0%,0%,0%);stroke-opacity:1;stroke-miterlimit:10;" d="M 69.949219 136.859375 L 87.296875 132.90625 "/>
<path style="fill:none;stroke-width:1.2;stroke-linecap:butt;stroke-linejoin:miter;stroke:rgb(0%,0%,0%);stroke-opacity:1;stroke-miterlimit:10;" d="M 87.296875 132.90625 L 99.398438 145.953125 "/>
<path style="fill:none;stroke-width:1.2;stroke-linecap:butt;stroke-linejoin:miter;stroke:rgb(0%,0%,0%);stroke-opacity:1;stroke-miterlimit:10;" d="M 85.4375 137.054688 L 95.117188 147.492188 "/>
<path style="fill:none;stroke-width:1.2;stroke-linecap:butt;stroke-linejoin:miter;stroke:rgb(0%,0%,0%);stroke-opacity:1;stroke-miterlimit:10;" d="M 99.398438 145.953125 L 94.148438 162.953125 "/>
<path style="fill:none;stroke-width:1.2;stroke-linecap:butt;stroke-linejoin:miter;stroke:rgb(0%,0%,0%);stroke-opacity:1;stroke-miterlimit:10;" d="M 99.398438 145.953125 L 108.074219 143.972656 "/>
<path style="fill:none;stroke-width:1.2;stroke-linecap:butt;stroke-linejoin:miter;stroke:rgb(0%,0%,100%);stroke-opacity:1;stroke-miterlimit:10;" d="M 108.074219 143.972656 L 116.746094 141.996094 "/>
<path style="fill:none;stroke-width:1.2;stroke-linecap:butt;stroke-linejoin:miter;stroke:rgb(0%,0%,0%);stroke-opacity:1;stroke-miterlimit:10;" d="M 94.148438 162.953125 L 76.800781 166.910156 "/>
<path style="fill:none;stroke-width:1.2;stroke-linecap:butt;stroke-linejoin:miter;stroke:rgb(0%,0%,0%);stroke-opacity:1;stroke-miterlimit:10;" d="M 91.484375 159.265625 L 77.605469 162.433594 "/>
<path style="fill:none;stroke-width:1.2;stroke-linecap:butt;stroke-linejoin:miter;stroke:rgb(0%,0%,100%);stroke-opacity:1;stroke-miterlimit:10;" d="M 116.746094 141.996094 L 122.796875 148.519531 "/>
<path style="fill:none;stroke-width:1.2;stroke-linecap:butt;stroke-linejoin:miter;stroke:rgb(0%,0%,0%);stroke-opacity:1;stroke-miterlimit:10;" d="M 122.796875 148.519531 L 128.847656 155.042969 "/>
<path style=" stroke:none;fill-rule:nonzero;fill:rgb(100%,100%,100%);fill-opacity:1;" d="M 109.746094 136.496094 L 123.746094 136.496094 L 123.746094 147.496094 L 109.746094 147.496094 Z M 109.746094 136.496094 "/>
<g style="fill:rgb(0%,0%,100%);fill-opacity:1;">
  <use xlink:href="#glyph0-2" x="109.746094" y="145.15918"/>
  <use xlink:href="#glyph0-3" x="116.723633" y="145.15918"/>
</g>
<path style="fill:none;stroke-width:1.2;stroke-linecap:butt;stroke-linejoin:miter;stroke:rgb(0%,0%,0%);stroke-opacity:1;stroke-miterlimit:10;" d="M 126.847656 154.425781 L 124.222656 162.925781 "/>
<path style="fill:none;stroke-width:1.2;stroke-linecap:butt;stroke-linejoin:miter;stroke:rgb(100%,0%,0%);stroke-opacity:1;stroke-miterlimit:10;" d="M 124.222656 162.925781 L 121.597656 171.425781 "/>
<path style="fill:none;stroke-width:1.2;stroke-linecap:butt;stroke-linejoin:miter;stroke:rgb(0%,0%,0%);stroke-opacity:1;stroke-miterlimit:10;" d="M 130.847656 155.660156 L 128.222656 164.160156 "/>
<path style="fill:none;stroke-width:1.2;stroke-linecap:butt;stroke-linejoin:miter;stroke:rgb(100%,0%,0%);stroke-opacity:1;stroke-miterlimit:10;" d="M 128.222656 164.160156 L 125.597656 172.664062 "/>
<path style="fill:none;stroke-width:1.2;stroke-linecap:butt;stroke-linejoin:miter;stroke:rgb(0%,0%,0%);stroke-opacity:1;stroke-miterlimit:10;" d="M 128.847656 155.042969 L 137.523438 153.0625 "/>
<path style="fill:none;stroke-width:1.2;stroke-linecap:butt;stroke-linejoin:miter;stroke:rgb(0%,0%,100%);stroke-opacity:1;stroke-miterlimit:10;" d="M 137.523438 153.0625 L 146.195312 151.085938 "/>
<path style=" stroke:none;fill-rule:nonzero;fill:rgb(100%,100%,100%);fill-opacity:1;" d="M 115.597656 166.542969 L 123.597656 166.542969 L 123.597656 177.542969 L 115.597656 177.542969 Z M 115.597656 166.542969 "/>
<g style="fill:rgb(100%,0%,0%);fill-opacity:1;">
  <use xlink:href="#glyph0-1" x="115.597656" y="175.206055"/>
</g>
<path style="fill:none;stroke-width:1.2;stroke-linecap:butt;stroke-linejoin:miter;stroke:rgb(0%,0%,100%);stroke-opacity:1;stroke-miterlimit:10;" d="M 146.195312 151.085938 L 149.695312 142.90625 "/>
<path style="fill:none;stroke-width:1.2;stroke-linecap:butt;stroke-linejoin:miter;stroke:rgb(0%,0%,0%);stroke-opacity:1;stroke-miterlimit:10;" d="M 149.695312 142.90625 L 153.195312 134.726562 "/>
<path style="fill:none;stroke-width:1.2;stroke-linecap:butt;stroke-linejoin:miter;stroke:rgb(0%,0%,0%);stroke-opacity:1;stroke-miterlimit:10;" d="M 159.59375 162.796875 L 152.894531 156.941406 "/>
<path style="fill:none;stroke-width:1.2;stroke-linecap:butt;stroke-linejoin:miter;stroke:rgb(0%,0%,100%);stroke-opacity:1;stroke-miterlimit:10;" d="M 152.894531 156.941406 L 146.195312 151.085938 "/>
<path style=" stroke:none;fill-rule:nonzero;fill:rgb(100%,100%,100%);fill-opacity:1;" d="M 143.195312 145.585938 L 150.195312 145.585938 L 150.195312 156.585938 L 143.195312 156.585938 Z M 143.195312 145.585938 "/>
<g style="fill:rgb(0%,0%,100%);fill-opacity:1;">
  <use xlink:href="#glyph0-2" x="143.195312" y="154.249023"/>
</g>
<path style="fill:none;stroke-width:1.2;stroke-linecap:butt;stroke-linejoin:miter;stroke:rgb(0%,0%,0%);stroke-opacity:1;stroke-miterlimit:10;" d="M 153.195312 134.726562 L 170.917969 136.324219 "/>
<path style=" stroke:none;fill-rule:nonzero;fill:rgb(0%,0%,0%);fill-opacity:1;" d="M 174.871094 153.671875 L 173.976562 135.625 L 167.855469 137.023438 Z M 174.871094 153.671875 "/>
<path style="fill:none;stroke-width:1.2;stroke-linecap:butt;stroke-linejoin:miter;stroke:rgb(0%,0%,0%);stroke-opacity:1;stroke-miterlimit:10;" d="M 174.871094 153.671875 L 159.59375 162.796875 "/>
<path style="fill:none;stroke-width:1.2;stroke-linecap:butt;stroke-linejoin:miter;stroke:rgb(0%,0%,0%);stroke-opacity:1;stroke-miterlimit:10;" d="M 174.871094 153.671875 L 176.992188 171.339844 "/>
<path style="fill:none;stroke-width:1.2;stroke-linecap:butt;stroke-linejoin:miter;stroke:rgb(0%,0%,0%);stroke-opacity:1;stroke-miterlimit:10;" d="M 189.113281 143.003906 L 174.871094 153.671875 "/>
<path style="fill:none;stroke-width:1.2;stroke-linecap:butt;stroke-linejoin:miter;stroke:rgb(0%,0%,0%);stroke-opacity:1;stroke-miterlimit:10;" d="M 176.992188 171.339844 L 193.355469 178.339844 "/>
<path style="fill:none;stroke-width:1.2;stroke-linecap:butt;stroke-linejoin:miter;stroke:rgb(0%,0%,0%);stroke-opacity:1;stroke-miterlimit:10;" d="M 193.355469 178.339844 L 207.59375 167.667969 "/>
<path style="fill:none;stroke-width:1.2;stroke-linecap:butt;stroke-linejoin:miter;stroke:rgb(0%,0%,0%);stroke-opacity:1;stroke-miterlimit:10;" d="M 207.59375 167.667969 L 206.535156 158.832031 "/>
<path style="fill:none;stroke-width:1.2;stroke-linecap:butt;stroke-linejoin:miter;stroke:rgb(0%,0%,100%);stroke-opacity:1;stroke-miterlimit:10;" d="M 206.535156 158.832031 L 205.472656 150 "/>
<path style="fill:none;stroke-width:1.2;stroke-linecap:butt;stroke-linejoin:miter;stroke:rgb(0%,0%,100%);stroke-opacity:1;stroke-miterlimit:10;" d="M 205.472656 150 L 197.292969 146.5 "/>
<path style="fill:none;stroke-width:1.2;stroke-linecap:butt;stroke-linejoin:miter;stroke:rgb(0%,0%,0%);stroke-opacity:1;stroke-miterlimit:10;" d="M 197.292969 146.5 L 189.113281 143.003906 "/>
<path style="fill:none;stroke-width:1.2;stroke-linecap:butt;stroke-linejoin:miter;stroke:rgb(0%,0%,100%);stroke-opacity:1;stroke-miterlimit:10;" d="M 205.472656 150 L 212.59375 144.664062 "/>
<path style="fill:none;stroke-width:1.2;stroke-linecap:butt;stroke-linejoin:miter;stroke:rgb(0%,0%,0%);stroke-opacity:1;stroke-miterlimit:10;" d="M 212.59375 144.664062 L 219.714844 139.328125 "/>
<path style=" stroke:none;fill-rule:nonzero;fill:rgb(100%,100%,100%);fill-opacity:1;" d="M 202.472656 144.5 L 209.472656 144.5 L 209.472656 155.5 L 202.472656 155.5 Z M 202.472656 144.5 "/>
<g style="fill:rgb(0%,0%,100%);fill-opacity:1;">
  <use xlink:href="#glyph0-2" x="202.472656" y="153.163086"/>
</g>
<path style="fill:none;stroke-width:1.2;stroke-linecap:butt;stroke-linejoin:miter;stroke:rgb(0%,0%,0%);stroke-opacity:1;stroke-miterlimit:10;" d="M 221.792969 139.078125 L 220.730469 130.246094 "/>
<path style="fill:none;stroke-width:1.2;stroke-linecap:butt;stroke-linejoin:miter;stroke:rgb(100%,0%,0%);stroke-opacity:1;stroke-miterlimit:10;" d="M 220.730469 130.246094 L 219.671875 121.414062 "/>
<path style="fill:none;stroke-width:1.2;stroke-linecap:butt;stroke-linejoin:miter;stroke:rgb(0%,0%,0%);stroke-opacity:1;stroke-miterlimit:10;" d="M 217.636719 139.578125 L 216.574219 130.746094 "/>
<path style="fill:none;stroke-width:1.2;stroke-linecap:butt;stroke-linejoin:miter;stroke:rgb(100%,0%,0%);stroke-opacity:1;stroke-miterlimit:10;" d="M 216.574219 130.746094 L 215.515625 121.910156 "/>
<path style="fill:none;stroke-width:1.2;stroke-linecap:butt;stroke-linejoin:miter;stroke:rgb(0%,0%,0%);stroke-opacity:1;stroke-miterlimit:10;" d="M 219.714844 139.328125 L 236.074219 146.328125 "/>
<path style=" stroke:none;fill-rule:nonzero;fill:rgb(100%,100%,100%);fill-opacity:1;" d="M 213.59375 116.160156 L 221.59375 116.160156 L 221.59375 127.160156 L 213.59375 127.160156 Z M 213.59375 116.160156 "/>
<g style="fill:rgb(100%,0%,0%);fill-opacity:1;">
  <use xlink:href="#glyph0-1" x="213.59375" y="124.823242"/>
</g>
<path style="fill:none;stroke-width:1.2;stroke-linecap:butt;stroke-linejoin:miter;stroke:rgb(0%,0%,0%);stroke-opacity:1;stroke-miterlimit:10;" d="M 236.074219 146.328125 L 251.351562 137.203125 "/>
<path style="fill:none;stroke-width:1.2;stroke-linecap:butt;stroke-linejoin:miter;stroke:rgb(0%,0%,0%);stroke-opacity:1;stroke-miterlimit:10;" d="M 239.75 149.007812 L 251.972656 141.710938 "/>
<path style="fill:none;stroke-width:1.2;stroke-linecap:butt;stroke-linejoin:miter;stroke:rgb(100%,0%,0%);stroke-opacity:1;stroke-miterlimit:10;" d="M 240.03125 163.675781 L 238.050781 155 "/>
<path style="fill:none;stroke-width:1.2;stroke-linecap:butt;stroke-linejoin:miter;stroke:rgb(0%,0%,0%);stroke-opacity:1;stroke-miterlimit:10;" d="M 238.050781 155 L 236.074219 146.328125 "/>
<path style="fill:none;stroke-width:1.2;stroke-linecap:butt;stroke-linejoin:miter;stroke:rgb(0%,0%,0%);stroke-opacity:1;stroke-miterlimit:10;" d="M 251.351562 137.203125 L 264.75 148.914062 "/>
<path style="fill:none;stroke-width:1.2;stroke-linecap:butt;stroke-linejoin:miter;stroke:rgb(0%,0%,0%);stroke-opacity:1;stroke-miterlimit:10;" d="M 264.75 148.914062 L 257.753906 165.273438 "/>
<path style="fill:none;stroke-width:1.2;stroke-linecap:butt;stroke-linejoin:miter;stroke:rgb(0%,0%,0%);stroke-opacity:1;stroke-miterlimit:10;" d="M 260.199219 148.902344 L 254.601562 161.992188 "/>
<path style="fill:none;stroke-width:1.2;stroke-linecap:butt;stroke-linejoin:miter;stroke:rgb(0%,0%,0%);stroke-opacity:1;stroke-miterlimit:10;" d="M 257.753906 165.273438 L 248.890625 164.476562 "/>
<path style="fill:none;stroke-width:1.2;stroke-linecap:butt;stroke-linejoin:miter;stroke:rgb(100%,0%,0%);stroke-opacity:1;stroke-miterlimit:10;" d="M 248.890625 164.476562 L 240.03125 163.675781 "/>
<path style=" stroke:none;fill-rule:nonzero;fill:rgb(100%,100%,100%);fill-opacity:1;" d="M 236.03125 158.175781 L 244.03125 158.175781 L 244.03125 169.175781 L 236.03125 169.175781 Z M 236.03125 158.175781 "/>
<g style="fill:rgb(100%,0%,0%);fill-opacity:1;">
  <use xlink:href="#glyph0-1" x="236.03125" y="166.838867"/>
</g>
</g>
</svg>

<svg xmlns="http://www.w3.org/2000/svg" xmlns:xlink="http://www.w3.org/1999/xlink" width="300pt" height="300pt" viewBox="0 0 300 300"><defs><symbol overflow="visible"><path d="M.453 1.594v-7.938h4.5v7.938zm.5-.5h3.5v-6.938h-3.5zm0 0"/></symbol><symbol overflow="visible" id="a"><path d="M3.547-5.953c-.65 0-1.164.242-1.547.72-.375.48-.563 1.13-.563 1.952 0 .835.188 1.49.563 1.967.383.48.898.72 1.547.72.644 0 1.156-.24 1.53-.72.376-.476.564-1.132.564-1.968 0-.822-.187-1.474-.562-1.954-.375-.477-.887-.72-1.53-.72zm0-.734c.914 0 1.648.312 2.203.937.55.617.828 1.438.828 2.47 0 1.042-.277 1.87-.828 2.483-.555.617-1.29.922-2.203.922-.93 0-1.668-.305-2.22-.922C.774-1.41.5-2.237.5-3.28c0-1.033.273-1.853.828-2.47.55-.625 1.29-.938 2.22-.938zm0 0"/></symbol><symbol overflow="visible" id="b"><path d="M.89-6.563H2.08l2.906 5.485v-5.484h.86V0H4.656L1.75-5.484V0H.89zm0 0"/></symbol><symbol overflow="visible" id="c"><path d="M.89-6.563h.876v2.688H5v-2.688h.89V0H5v-3.125H1.766V0H.89zm0 0"/></symbol></defs><g><path fill="#fff" d="M0 0h300v300H0z"/><path d="M35.25 144.773l6.05 6.524" stroke-width="1.2" stroke="#000" stroke-miterlimit="10" fill="none"/><path d="M41.3 151.297l6.052 6.523M47.352 157.82l8.67-1.98" stroke-width="1.2" stroke="#f00" stroke-miterlimit="10" fill="none"/><path d="M56.023 155.84l8.676-1.977" stroke-width="1.2" stroke="#000" stroke-miterlimit="10" fill="none"/><path d="M43.352 152.32h8v11h-8zm0 0" fill="#fff"/><use xlink:href="#a" x="43.352" y="160.983" fill="#f00"/><path d="M64.7 153.863l5.25-17.004M69.227 153.398l4.2-13.6M76.8 166.91l-12.1-13.047M69.95 136.86l17.347-3.954M87.297 132.906l12.1 13.047M85.438 137.055l9.68 10.437M99.398 145.953l-5.25 17M99.398 145.953l8.676-1.98" stroke-width="1.2" stroke="#000" stroke-miterlimit="10" fill="none"/><path d="M108.074 143.973l8.672-1.977" stroke-width="1.2" stroke="#00f" stroke-miterlimit="10" fill="none"/><path d="M94.148 162.953L76.8 166.91M91.484 159.266l-13.88 3.168" stroke-width="1.2" stroke="#000" stroke-miterlimit="10" fill="none"/><path d="M116.746 141.996l6.05 6.524" stroke-width="1.2" stroke="#00f" stroke-miterlimit="10" fill="none"/><path d="M122.797 148.52l6.05 6.523" stroke-width="1.2" stroke="#000" stroke-miterlimit="10" fill="none"/><path d="M109.746 136.496h14v11h-14zm0 0" fill="#fff"/><g fill="#00f"><use xlink:href="#b" x="109.746" y="145.159"/><use xlink:href="#c" x="116.724" y="145.159"/></g><path d="M126.848 154.426l-2.625 8.5" stroke-width="1.2" stroke="#000" stroke-miterlimit="10" fill="none"/><path d="M124.223 162.926l-2.625 8.5" stroke-width="1.2" stroke="#f00" stroke-miterlimit="10" fill="none"/><path d="M130.848 155.66l-2.625 8.5" stroke-width="1.2" stroke="#000" stroke-miterlimit="10" fill="none"/><path d="M128.223 164.16l-2.625 8.504" stroke-width="1.2" stroke="#f00" stroke-miterlimit="10" fill="none"/><path d="M128.848 155.043l8.675-1.98" stroke-width="1.2" stroke="#000" stroke-miterlimit="10" fill="none"/><path d="M137.523 153.063l8.672-1.977" stroke-width="1.2" stroke="#00f" stroke-miterlimit="10" fill="none"/><path d="M115.598 166.543h8v11h-8zm0 0" fill="#fff"/><use xlink:href="#a" x="115.598" y="175.206" fill="#f00"/><path d="M146.195 151.086l3.5-8.18" stroke-width="1.2" stroke="#00f" stroke-miterlimit="10" fill="none"/><path d="M149.695 142.906l3.5-8.18M159.594 162.797l-6.7-5.856" stroke-width="1.2" stroke="#000" stroke-miterlimit="10" fill="none"/><path d="M152.895 156.94l-6.7-5.854" stroke-width="1.2" stroke="#00f" stroke-miterlimit="10" fill="none"/><path d="M143.195 145.586h7v11h-7zm0 0" fill="#fff"/><use xlink:href="#b" x="143.195" y="154.249" fill="#00f"/><path d="M153.195 134.727l17.723 1.597" stroke-width="1.2" stroke="#000" stroke-miterlimit="10" fill="none"/><path d="M174.87 153.672l-.893-18.047-6.122 1.398zm0 0"/><path d="M174.87 153.672l-15.276 9.125M174.87 153.672l2.122 17.668M189.113 143.004l-14.242 10.668M176.992 171.34l16.363 7M193.355 178.34l14.24-10.672M207.594 167.668l-1.06-8.836" stroke-width="1.2" stroke="#000" stroke-miterlimit="10" fill="none"/><path d="M206.535 158.832L205.473 150M205.473 150l-8.18-3.5" stroke-width="1.2" stroke="#00f" stroke-miterlimit="10" fill="none"/><path d="M197.293 146.5l-8.18-3.496" stroke-width="1.2" stroke="#000" stroke-miterlimit="10" fill="none"/><path d="M205.473 150l7.12-5.336" stroke-width="1.2" stroke="#00f" stroke-miterlimit="10" fill="none"/><path d="M212.594 144.664l7.12-5.336" stroke-width="1.2" stroke="#000" stroke-miterlimit="10" fill="none"/><path d="M202.473 144.5h7v11h-7zm0 0" fill="#fff"/><use xlink:href="#b" x="202.473" y="153.163" fill="#00f"/><path d="M221.793 139.078l-1.063-8.832" stroke-width="1.2" stroke="#000" stroke-miterlimit="10" fill="none"/><path d="M220.73 130.246l-1.058-8.832" stroke-width="1.2" stroke="#f00" stroke-miterlimit="10" fill="none"/><path d="M217.637 139.578l-1.063-8.832" stroke-width="1.2" stroke="#000" stroke-miterlimit="10" fill="none"/><path d="M216.574 130.746l-1.058-8.836" stroke-width="1.2" stroke="#f00" stroke-miterlimit="10" fill="none"/><path d="M219.715 139.328l16.36 7" stroke-width="1.2" stroke="#000" stroke-miterlimit="10" fill="none"/><path d="M213.594 116.16h8v11h-8zm0 0" fill="#fff"/><use xlink:href="#a" x="213.594" y="124.823" fill="#f00"/><path d="M236.074 146.328l15.278-9.125M239.75 149.008l12.223-7.297" stroke-width="1.2" stroke="#000" stroke-miterlimit="10" fill="none"/><path d="M240.03 163.676L238.05 155" stroke-width="1.2" stroke="#f00" stroke-miterlimit="10" fill="none"/><path d="M238.05 155l-1.976-8.672M251.352 137.203l13.398 11.71M264.75 148.914l-6.996 16.36M260.2 148.902l-5.598 13.09M257.754 165.273l-8.863-.796" stroke-width="1.2" stroke="#000" stroke-miterlimit="10" fill="none"/><path d="M248.89 164.477l-8.86-.8" stroke-width="1.2" stroke="#f00" stroke-miterlimit="10" fill="none"/><path d="M236.03 158.176h8v11h-8zm0 0" fill="#fff"/><use xlink:href="#a" x="236.031" y="166.839" fill="#f00"/></g></svg>
